X: 147107
T: QUICKSTEP
%R: quick-step, jig
B: James Kerr "Merry Melodies" v.1 p.47 s.1 #7
Z: 2016 John Chambers <jc:trillian.mit.edu>
M: 6/8
L: 1/8
K: D
uD |\
vA2vA ABA | FGE D2F/G/ | A>BA AFA | B3 d2z |\
vD2vD DEF | AGF FED | d>cB AFA | B2c d2 :|
|: uA |\
vd2ve uf2ud | efd cBA | vd2ve fgf | e3 ABc |\
dcd efg | agf edc | dcB AFA | B2c d2 :|

%%sep 1 1 500
%%sep 1 1 500

